dist/assets/img/iconsfont/footer-phone.svg

<svg width="15" height="16" viewBox="0 0 15 16" fill="none" xmlns="http://www.w3.org/2000/svg">
<path d="M14.6144 11.6797L12.7496 9.7111C12.2355 9.1684 11.3989 9.1684 10.8848 9.7111L10.0372 10.6059C9.64769 11.0171 9.01392 11.0169 8.62457 10.6061L4.95058 6.72429C4.56018 6.31217 4.56012 5.64513 4.95058 5.23294C5.08711 5.08882 5.47915 4.67496 5.79821 4.33815C6.31008 3.79782 6.31722 2.91744 5.79771 2.36907L3.93341 0.407207C3.41928 -0.135498 2.58273 -0.135498 2.06999 0.405784C1.6863 0.8073 1.56254 0.936829 1.3905 1.11686C-0.463486 3.074 -0.463486 6.25851 1.39041 8.21558L7.21173 14.3641C9.07005 16.3258 12.0778 16.326 13.9363 14.3641L14.6144 13.6482C15.1285 13.1055 15.1285 12.2224 14.6144 11.6797ZM2.69023 1.06339C2.86159 0.882487 3.14039 0.882456 3.31232 1.06388L5.17662 3.02575C5.34839 3.20709 5.34839 3.50057 5.17662 3.68193L4.86579 4.01002L2.38101 1.38696L2.69023 1.06339ZM7.83343 13.708L2.01209 7.55943C0.577712 6.04522 0.498871 3.66758 1.76962 2.05394L4.24719 4.66939C3.59619 5.44845 3.62332 6.63559 4.32884 7.38038L8.00272 11.262C8.00275 11.262 8.00281 11.2621 8.00284 11.2621C8.7076 12.0061 9.8321 12.0366 10.571 11.3484L13.0486 13.9639C11.5249 15.3031 9.27769 15.2326 7.83343 13.708ZM13.9928 12.992L13.682 13.3202L11.1956 10.6954L11.5064 10.3673C11.6778 10.1864 11.9566 10.1864 12.128 10.3673L13.9928 12.3359C14.1642 12.5168 14.1642 12.8112 13.9928 12.992Z" fill="white"/>
</svg>

<svg width="15" height="16" fill="none" xmlns="http://www.w3.org/2000/svg"><path d="M14.614 11.68L12.75 9.71a1.271 1.271 0 00-1.865 0l-.848.895a.963.963 0 01-1.412 0L4.95 6.724a1.096 1.096 0 010-1.491l.847-.895c.512-.54.52-1.42 0-1.969L3.933.407A1.271 1.271 0 002.07.406l-.68.71c-1.853 1.958-1.853 5.143 0 7.1l5.822 6.148c1.858 1.962 4.866 1.962 6.724 0l.678-.716a1.449 1.449 0 000-1.968zM2.69 1.063c.172-.18.45-.18.622 0l1.865 1.963a.482.482 0 010 .656l-.311.328L2.38 1.387l.31-.324zm5.143 12.645l-5.82-6.149C.577 6.045.498 3.668 1.77 2.054l2.477 2.615A2.061 2.061 0 004.33 7.38l3.674 3.882c.705.744 1.83.775 2.568.086l2.478 2.616c-1.524 1.34-3.771 1.269-5.216-.256zm6.16-.716l-.311.328-2.486-2.625.31-.328c.172-.18.45-.18.622 0l1.865 1.969a.483.483 0 010 .656z" fill="#fff"/></svg>
